X:1
T: John Howat's Strathspey
C:H. Dunlop
R:Strathspey
Q: 128
K:D
M:4/4
L:1/16
|:a2|f3d d3A G3F E3D|((3F2G2A2) A,3D E3F G3a|f3d d3A G3F E3D|C3E A,3E D4 D2a|
f3d d3A G3F E3D|((3F2G2A2) A,3D E3F G3a|f3d d3A G3F E3D|C3E A,3E D4 D2A2|
d3e f3g a3d f4|e3A f3A g3A e3A|d3e f3g a3b a4|((3B2c2d2) ((3e2f2g2) f3d d3f|
d3e f3g a3d f4|e3A f3A g3A e3A|((3f2e2d2) ((3c2d2e2) ((3d2c2B2) ((3A2G2F2) |G3E C3E F2D2 D2:|
